!!!OTL: Der Kaiser und der Koenig
!!!ARE: Europa, Mitteleuropa, Deutschland, Hessen, Odenwald; Franken
!!!SCT: E2119
!!!YEM: Copyright 1995, estate of Helmut Schaffrath.
**kern
*ICvox
*Ivox
*M4/4
*k[f#]
*G:
{4d
=1
4.g
8b
4a
4g
=2
4f#
4a
4r}
{4f#
=3
4.e
8a
4a
8g
8e
=4
2d
4r}
{8g
8a
=5
4b
4b
4a
8b
8dd
=6
8dd
8cc
4b
4r}
{8b
8a
=7
4.g
8b
8b
8a
4a
=8
2g
4r}
==
!!!AGN: geistlich, Heiligen - Lied, Legende
!!!ONB: ESAC (Essen Associative Code) Database: ERK3
!!!AMT: simple quadruple
!!!AIN: vox
!!!EED: Helmut Schaffrath
!!!EEV: 1.0
*-
